( Made using CamBam - http://www.cambam.co.uk )
( MinimalArduiVario-drl_map 5/12/2017 5:48:22 PM )
( T0 : 0.8 )
G21 G90 G64 G40
G0 Z3.0
( T0 : 0.8 )
T0 M6
( Perçage1 )
G17
M3 S1000
G0 X11.44 Y10.51
G98
G83 X11.44 Y10.51 Z-2.2 Q0.8 R1.0 F200.0
G83 X10.89 Y3.74 Z-2.2
G83 X12.15 Y1.25 Z-2.2
G83 X14.55 Y4.4 Z-2.2
G83 X17.9 Y3.74 Z-2.2
G83 X16.65 Y1.25 Z-2.2
G83 X25.46 Y1.867 Z-2.2
G83 X27.95 Y3.127 Z-2.2
G83 Y7.627 Z-2.2
G83 X25.46 Y8.877 Z-2.2
G83 Y12.19 Z-2.2
G83 X27.95 Y13.45 Z-2.2
G83 Y17.95 Z-2.2
G83 X25.46 Y19.2 Z-2.2
G83 X25.51 Y25.39 Z-2.2
G83 X28.0 Y26.65 Z-2.2
G83 Y31.15 Z-2.2
G83 X25.51 Y32.4 Z-2.2
G83 X20.4 Y32.85 Z-2.2
G83 X12.84 Y31.65 Z-2.2
G83 X10.3 Z-2.2
G83 X8.5 Z-2.2
G83 X5.96 Z-2.2
G83 X3.8 Y28.78 Z-2.2
G83 Y26.24 Z-2.2
G83 Y23.7 Z-2.2
G83 Y21.16 Z-2.2
G83 Y18.62 Z-2.2
G83 Y16.08 Z-2.2
G83 Y13.54 Z-2.2
G83 Y11.0 Z-2.2
G83 Y7.2 Z-2.2
G83 Y4.66 Z-2.2
G83 X15.0 Y19.45 Z-2.2
G80
G0 Z3.0
M5
M30
