( Made using CamBam - http://www.cambam.co.uk )
( MinimalArduiVario-drl_map 5/12/2017 5:04:44 PM )
( T0 : 0.8 )
G21 G90 G64 G40
G0 Z3.0
( T0 : 0.8 )
T0 M6
( Perçage2 )
G17
M3 S1000
G0 X3.8 Y28.78
G0 Z3.0
G0 X3.85 Y28.78
G0 Z1.0
G1 F100.0 Z0.0
G2 F200.0 X3.775 Y28.7367 Z-0.2667 I-0.05 J0.0
G2 Y28.8233 Z-0.5333 I0.025 J0.0433
G2 X3.85 Y28.78 Z-0.8 I0.025 J-0.0433
G2 X3.775 Y28.7367 Z-1.0667 I-0.05 J0.0
G2 Y28.8233 Z-1.3333 I0.025 J0.0433
G2 X3.85 Y28.78 Z-1.6 I0.025 J-0.0433
G2 X3.775 Y28.7367 Z-1.8667 I-0.05 J0.0
G2 X3.75 Y28.78 Z-2.0 I0.025 J0.0433
G2 X3.825 Y28.8233 I0.05 J0.0
G2 Y28.7367 I-0.025 J-0.0433
G2 X3.75 Y28.78 I-0.025 J0.0433
G0 Z3.0
G0 X3.85 Y26.24
G0 Z1.0
G1 F100.0 Z0.0
G2 F200.0 X3.775 Y26.1967 Z-0.2667 I-0.05 J0.0
G2 Y26.2833 Z-0.5333 I0.025 J0.0433
G2 X3.85 Y26.24 Z-0.8 I0.025 J-0.0433
G2 X3.775 Y26.1967 Z-1.0667 I-0.05 J0.0
G2 Y26.2833 Z-1.3333 I0.025 J0.0433
G2 X3.85 Y26.24 Z-1.6 I0.025 J-0.0433
G2 X3.775 Y26.1967 Z-1.8667 I-0.05 J0.0
G2 X3.75 Y26.24 Z-2.0 I0.025 J0.0433
G2 X3.825 Y26.2833 I0.05 J0.0
G2 Y26.1967 I-0.025 J-0.0433
G2 X3.75 Y26.24 I-0.025 J0.0433
G0 Z3.0
G0 X3.85 Y23.7
G0 Z1.0
G1 F100.0 Z0.0
G2 F200.0 X3.775 Y23.6567 Z-0.2667 I-0.05 J0.0
G2 Y23.7433 Z-0.5333 I0.025 J0.0433
G2 X3.85 Y23.7 Z-0.8 I0.025 J-0.0433
G2 X3.775 Y23.6567 Z-1.0667 I-0.05 J0.0
G2 Y23.7433 Z-1.3333 I0.025 J0.0433
G2 X3.85 Y23.7 Z-1.6 I0.025 J-0.0433
G2 X3.775 Y23.6567 Z-1.8667 I-0.05 J0.0
G2 X3.75 Y23.7 Z-2.0 I0.025 J0.0433
G2 X3.825 Y23.7433 I0.05 J0.0
G2 Y23.6567 I-0.025 J-0.0433
G2 X3.75 Y23.7 I-0.025 J0.0433
G0 Z3.0
G0 X3.85 Y21.16
G0 Z1.0
G1 F100.0 Z0.0
G2 F200.0 X3.775 Y21.1167 Z-0.2667 I-0.05 J0.0
G2 Y21.2033 Z-0.5333 I0.025 J0.0433
G2 X3.85 Y21.16 Z-0.8 I0.025 J-0.0433
G2 X3.775 Y21.1167 Z-1.0667 I-0.05 J0.0
G2 Y21.2033 Z-1.3333 I0.025 J0.0433
G2 X3.85 Y21.16 Z-1.6 I0.025 J-0.0433
G2 X3.775 Y21.1167 Z-1.8667 I-0.05 J0.0
G2 X3.75 Y21.16 Z-2.0 I0.025 J0.0433
G2 X3.825 Y21.2033 I0.05 J0.0
G2 Y21.1167 I-0.025 J-0.0433
G2 X3.75 Y21.16 I-0.025 J0.0433
G0 Z3.0
G0 X3.85 Y18.62
G0 Z1.0
G1 F100.0 Z0.0
G2 F200.0 X3.775 Y18.5767 Z-0.2667 I-0.05 J0.0
G2 Y18.6633 Z-0.5333 I0.025 J0.0433
G2 X3.85 Y18.62 Z-0.8 I0.025 J-0.0433
G2 X3.775 Y18.5767 Z-1.0667 I-0.05 J0.0
G2 Y18.6633 Z-1.3333 I0.025 J0.0433
G2 X3.85 Y18.62 Z-1.6 I0.025 J-0.0433
G2 X3.775 Y18.5767 Z-1.8667 I-0.05 J0.0
G2 X3.75 Y18.62 Z-2.0 I0.025 J0.0433
G2 X3.825 Y18.6633 I0.05 J0.0
G2 Y18.5767 I-0.025 J-0.0433
G2 X3.75 Y18.62 I-0.025 J0.0433
G0 Z3.0
G0 X3.85 Y16.08
G0 Z1.0
G1 F100.0 Z0.0
G2 F200.0 X3.775 Y16.0367 Z-0.2667 I-0.05 J0.0
G2 Y16.1233 Z-0.5333 I0.025 J0.0433
G2 X3.85 Y16.08 Z-0.8 I0.025 J-0.0433
G2 X3.775 Y16.0367 Z-1.0667 I-0.05 J0.0
G2 Y16.1233 Z-1.3333 I0.025 J0.0433
G2 X3.85 Y16.08 Z-1.6 I0.025 J-0.0433
G2 X3.775 Y16.0367 Z-1.8667 I-0.05 J0.0
G2 X3.75 Y16.08 Z-2.0 I0.025 J0.0433
G2 X3.825 Y16.1233 I0.05 J0.0
G2 Y16.0367 I-0.025 J-0.0433
G2 X3.75 Y16.08 I-0.025 J0.0433
G0 Z3.0
G0 X3.85 Y13.54
G0 Z1.0
G1 F100.0 Z0.0
G2 F200.0 X3.775 Y13.4967 Z-0.2667 I-0.05 J0.0
G2 Y13.5833 Z-0.5333 I0.025 J0.0433
G2 X3.85 Y13.54 Z-0.8 I0.025 J-0.0433
G2 X3.775 Y13.4967 Z-1.0667 I-0.05 J0.0
G2 Y13.5833 Z-1.3333 I0.025 J0.0433
G2 X3.85 Y13.54 Z-1.6 I0.025 J-0.0433
G2 X3.775 Y13.4967 Z-1.8667 I-0.05 J0.0
G2 X3.75 Y13.54 Z-2.0 I0.025 J0.0433
G2 X3.825 Y13.5833 I0.05 J0.0
G2 Y13.4967 I-0.025 J-0.0433
G2 X3.75 Y13.54 I-0.025 J0.0433
G0 Z3.0
G0 X3.85 Y11.0
G0 Z1.0
G1 F100.0 Z0.0
G2 F200.0 X3.775 Y10.9567 Z-0.2667 I-0.05 J0.0
G2 Y11.0433 Z-0.5333 I0.025 J0.0433
G2 X3.85 Y11.0 Z-0.8 I0.025 J-0.0433
G2 X3.775 Y10.9567 Z-1.0667 I-0.05 J0.0
G2 Y11.0433 Z-1.3333 I0.025 J0.0433
G2 X3.85 Y11.0 Z-1.6 I0.025 J-0.0433
G2 X3.775 Y10.9567 Z-1.8667 I-0.05 J0.0
G2 X3.75 Y11.0 Z-2.0 I0.025 J0.0433
G2 X3.825 Y11.0433 I0.05 J0.0
G2 Y10.9567 I-0.025 J-0.0433
G2 X3.75 Y11.0 I-0.025 J0.0433
G0 Z3.0
G0 X3.85 Y7.2
G0 Z1.0
G1 F100.0 Z0.0
G2 F200.0 X3.775 Y7.1567 Z-0.2667 I-0.05 J0.0
G2 Y7.2433 Z-0.5333 I0.025 J0.0433
G2 X3.85 Y7.2 Z-0.8 I0.025 J-0.0433
G2 X3.775 Y7.1567 Z-1.0667 I-0.05 J0.0
G2 Y7.2433 Z-1.3333 I0.025 J0.0433
G2 X3.85 Y7.2 Z-1.6 I0.025 J-0.0433
G2 X3.775 Y7.1567 Z-1.8667 I-0.05 J0.0
G2 X3.75 Y7.2 Z-2.0 I0.025 J0.0433
G2 X3.825 Y7.2433 I0.05 J0.0
G2 Y7.1567 I-0.025 J-0.0433
G2 X3.75 Y7.2 I-0.025 J0.0433
G0 Z3.0
G0 X3.85 Y4.66
G0 Z1.0
G1 F100.0 Z0.0
G2 F200.0 X3.775 Y4.6167 Z-0.2667 I-0.05 J0.0
G2 Y4.7033 Z-0.5333 I0.025 J0.0433
G2 X3.85 Y4.66 Z-0.8 I0.025 J-0.0433
G2 X3.775 Y4.6167 Z-1.0667 I-0.05 J0.0
G2 Y4.7033 Z-1.3333 I0.025 J0.0433
G2 X3.85 Y4.66 Z-1.6 I0.025 J-0.0433
G2 X3.775 Y4.6167 Z-1.8667 I-0.05 J0.0
G2 X3.75 Y4.66 Z-2.0 I0.025 J0.0433
G2 X3.825 Y4.7033 I0.05 J0.0
G2 Y4.6167 I-0.025 J-0.0433
G2 X3.75 Y4.66 I-0.025 J0.0433
( Perçage3 )
S1000
G0 Z3.0
G0 X10.89 Y3.74
G0 Z3.0
G0 X11.09 Y3.74
G0 Z1.0
G1 F100.0 Z0.0
G2 F200.0 X10.79 Y3.5668 Z-0.2667 I-0.2 J0.0
G2 Y3.9132 Z-0.5333 I0.1 J0.1732
G2 X11.09 Y3.74 Z-0.8 I0.1 J-0.1732
G2 X10.79 Y3.5668 Z-1.0667 I-0.2 J0.0
G2 Y3.9132 Z-1.3333 I0.1 J0.1732
G2 X11.09 Y3.74 Z-1.6 I0.1 J-0.1732
G2 X10.79 Y3.5668 Z-1.8667 I-0.2 J0.0
G2 X10.69 Y3.74 Z-2.0 I0.1 J0.1732
G2 X10.99 Y3.9132 I0.2 J0.0
G2 Y3.5668 I-0.1 J-0.1732
G2 X10.69 Y3.74 I-0.1 J0.1732
G0 Z3.0
G0 X18.1
G0 Z1.0
G1 F100.0 Z0.0
G2 F200.0 X17.8 Y3.5668 Z-0.2667 I-0.2 J0.0
G2 Y3.9132 Z-0.5333 I0.1 J0.1732
G2 X18.1 Y3.74 Z-0.8 I0.1 J-0.1732
G2 X17.8 Y3.5668 Z-1.0667 I-0.2 J0.0
G2 Y3.9132 Z-1.3333 I0.1 J0.1732
G2 X18.1 Y3.74 Z-1.6 I0.1 J-0.1732
G2 X17.8 Y3.5668 Z-1.8667 I-0.2 J0.0
G2 X17.7 Y3.74 Z-2.0 I0.1 J0.1732
G2 X18.0 Y3.9132 I0.2 J0.0
G2 Y3.5668 I-0.1 J-0.1732
G2 X17.7 Y3.74 I-0.1 J0.1732
G0 Z3.0
G0 X25.66 Y1.867
G0 Z1.0
G1 F100.0 Z0.0
G2 F200.0 X25.36 Y1.6938 Z-0.2667 I-0.2 J0.0
G2 Y2.0402 Z-0.5333 I0.1 J0.1732
G2 X25.66 Y1.867 Z-0.8 I0.1 J-0.1732
G2 X25.36 Y1.6938 Z-1.0667 I-0.2 J0.0
G2 Y2.0402 Z-1.3333 I0.1 J0.1732
G2 X25.66 Y1.867 Z-1.6 I0.1 J-0.1732
G2 X25.36 Y1.6938 Z-1.8667 I-0.2 J0.0
G2 X25.26 Y1.867 Z-2.0 I0.1 J0.1732
G2 X25.56 Y2.0402 I0.2 J0.0
G2 Y1.6938 I-0.1 J-0.1732
G2 X25.26 Y1.867 I-0.1 J0.1732
G0 Z3.0
G0 X25.66 Y8.877
G0 Z1.0
G1 F100.0 Z0.0
G2 F200.0 X25.36 Y8.7038 Z-0.2667 I-0.2 J0.0
G2 Y9.0502 Z-0.5333 I0.1 J0.1732
G2 X25.66 Y8.877 Z-0.8 I0.1 J-0.1732
G2 X25.36 Y8.7038 Z-1.0667 I-0.2 J0.0
G2 Y9.0502 Z-1.3333 I0.1 J0.1732
G2 X25.66 Y8.877 Z-1.6 I0.1 J-0.1732
G2 X25.36 Y8.7038 Z-1.8667 I-0.2 J0.0
G2 X25.26 Y8.877 Z-2.0 I0.1 J0.1732
G2 X25.56 Y9.0502 I0.2 J0.0
G2 Y8.7038 I-0.1 J-0.1732
G2 X25.26 Y8.877 I-0.1 J0.1732
G0 Z3.0
G0 X25.66 Y12.19
G0 Z1.0
G1 F100.0 Z0.0
G2 F200.0 X25.36 Y12.0168 Z-0.2667 I-0.2 J0.0
G2 Y12.3632 Z-0.5333 I0.1 J0.1732
G2 X25.66 Y12.19 Z-0.8 I0.1 J-0.1732
G2 X25.36 Y12.0168 Z-1.0667 I-0.2 J0.0
G2 Y12.3632 Z-1.3333 I0.1 J0.1732
G2 X25.66 Y12.19 Z-1.6 I0.1 J-0.1732
G2 X25.36 Y12.0168 Z-1.8667 I-0.2 J0.0
G2 X25.26 Y12.19 Z-2.0 I0.1 J0.1732
G2 X25.56 Y12.3632 I0.2 J0.0
G2 Y12.0168 I-0.1 J-0.1732
G2 X25.26 Y12.19 I-0.1 J0.1732
G0 Z3.0
G0 X25.66 Y19.2
G0 Z1.0
G1 F100.0 Z0.0
G2 F200.0 X25.36 Y19.0268 Z-0.2667 I-0.2 J0.0
G2 Y19.3732 Z-0.5333 I0.1 J0.1732
G2 X25.66 Y19.2 Z-0.8 I0.1 J-0.1732
G2 X25.36 Y19.0268 Z-1.0667 I-0.2 J0.0
G2 Y19.3732 Z-1.3333 I0.1 J0.1732
G2 X25.66 Y19.2 Z-1.6 I0.1 J-0.1732
G2 X25.36 Y19.0268 Z-1.8667 I-0.2 J0.0
G2 X25.26 Y19.2 Z-2.0 I0.1 J0.1732
G2 X25.56 Y19.3732 I0.2 J0.0
G2 Y19.0268 I-0.1 J-0.1732
G2 X25.26 Y19.2 I-0.1 J0.1732
G0 Z3.0
G0 X25.71 Y25.39
G0 Z1.0
G1 F100.0 Z0.0
G2 F200.0 X25.41 Y25.2168 Z-0.2667 I-0.2 J0.0
G2 Y25.5632 Z-0.5333 I0.1 J0.1732
G2 X25.71 Y25.39 Z-0.8 I0.1 J-0.1732
G2 X25.41 Y25.2168 Z-1.0667 I-0.2 J0.0
G2 Y25.5632 Z-1.3333 I0.1 J0.1732
G2 X25.71 Y25.39 Z-1.6 I0.1 J-0.1732
G2 X25.41 Y25.2168 Z-1.8667 I-0.2 J0.0
G2 X25.31 Y25.39 Z-2.0 I0.1 J0.1732
G2 X25.61 Y25.5632 I0.2 J0.0
G2 Y25.2168 I-0.1 J-0.1732
G2 X25.31 Y25.39 I-0.1 J0.1732
G0 Z3.0
G0 X25.71 Y32.4
G0 Z1.0
G1 F100.0 Z0.0
G2 F200.0 X25.41 Y32.2268 Z-0.2667 I-0.2 J0.0
G2 Y32.5732 Z-0.5333 I0.1 J0.1732
G2 X25.71 Y32.4 Z-0.8 I0.1 J-0.1732
G2 X25.41 Y32.2268 Z-1.0667 I-0.2 J0.0
G2 Y32.5732 Z-1.3333 I0.1 J0.1732
G2 X25.71 Y32.4 Z-1.6 I0.1 J-0.1732
G2 X25.41 Y32.2268 Z-1.8667 I-0.2 J0.0
G2 X25.31 Y32.4 Z-2.0 I0.1 J0.1732
G2 X25.61 Y32.5732 I0.2 J0.0
G2 Y32.2268 I-0.1 J-0.1732
G2 X25.31 Y32.4 I-0.1 J0.1732
( Contour1 )
S1000
G0 Z3.0
G0 X0.0 Y-0.4
G0 Z1.0
G1 F100.0 Z-0.4
G1 F200.0 X20.6
G1 X21.4
G1 X22.2
G1 X23.0
G1 X29.9
G3 X30.3 Y0.0 I0.0 J0.4
G1 Y18.25
G1 Y19.05
G1 Y19.85
G1 Y20.65
G1 Y35.9
G3 X29.9 Y36.3 I-0.4 J0.0
G1 X14.65
G1 X13.85
G1 X13.05
G1 X12.25
G1 X0.0
G3 X-0.4 Y35.9 I0.0 J-0.4
G1 Y17.65
G1 Y16.85
G1 Y16.05
G1 Y15.25
G1 Y0.0
G3 X0.0 Y-0.4 I0.4 J0.0
G1 F100.0 Z-0.8
G1 F200.0 X20.6
G1 X21.4 Z-0.4
G1 X22.2
G1 X23.0 Z-0.8
G1 X29.9
G3 X30.3 Y0.0 I0.0 J0.4
G1 Y18.25
G1 Y19.05 Z-0.4
G1 Y19.85
G1 Y20.65 Z-0.8
G1 Y35.9
G3 X29.9 Y36.3 I-0.4 J0.0
G1 X14.65
G1 X13.85 Z-0.4
G1 X13.05
G1 X12.25 Z-0.8
G1 X0.0
G3 X-0.4 Y35.9 I0.0 J-0.4
G1 Y17.65
G1 Y16.85 Z-0.4
G1 Y16.05
G1 Y15.25 Z-0.8
G1 Y0.0
G3 X0.0 Y-0.4 I0.4 J0.0
G1 F100.0 Z-1.2
G1 F200.0 X20.6
G1 X21.4 Z-0.4
G1 X22.2
G1 X23.0 Z-1.2
G1 X29.9
G3 X30.3 Y0.0 I0.0 J0.4
G1 Y18.25
G1 Y19.05 Z-0.4
G1 Y19.85
G1 Y20.65 Z-1.2
G1 Y35.9
G3 X29.9 Y36.3 I-0.4 J0.0
G1 X14.65
G1 X13.85 Z-0.4
G1 X13.05
G1 X12.25 Z-1.2
G1 X0.0
G3 X-0.4 Y35.9 I0.0 J-0.4
G1 Y17.65
G1 Y16.85 Z-0.4
G1 Y16.05
G1 Y15.25 Z-1.2
G1 Y0.0
G3 X0.0 Y-0.4 I0.4 J0.0
G1 F100.0 Z-1.6
G1 F200.0 X20.6
G1 X21.4 Z-0.4
G1 X22.2
G1 X23.0 Z-1.6
G1 X29.9
G3 X30.3 Y0.0 I0.0 J0.4
G1 Y18.25
G1 Y19.05 Z-0.4
G1 Y19.85
G1 Y20.65 Z-1.6
G1 Y35.9
G3 X29.9 Y36.3 I-0.4 J0.0
G1 X14.65
G1 X13.85 Z-0.4
G1 X13.05
G1 X12.25 Z-1.6
G1 X0.0
G3 X-0.4 Y35.9 I0.0 J-0.4
G1 Y17.65
G1 Y16.85 Z-0.4
G1 Y16.05
G1 Y15.25 Z-1.6
G1 Y0.0
G3 X0.0 Y-0.4 I0.4 J0.0
G1 F100.0 Z-2.0
G1 F200.0 X20.6
G1 X21.4 Z-0.4
G1 X22.2
G1 X23.0 Z-2.0
G1 X29.9
G3 X30.3 Y0.0 I0.0 J0.4
G1 Y18.25
G1 Y19.05 Z-0.4
G1 Y19.85
G1 Y20.65 Z-2.0
G1 Y35.9
G3 X29.9 Y36.3 I-0.4 J0.0
G1 X14.65
G1 X13.85 Z-0.4
G1 X13.05
G1 X12.25 Z-2.0
G1 X0.0
G3 X-0.4 Y35.9 I0.0 J-0.4
G1 Y17.65
G1 Y16.85 Z-0.4
G1 Y16.05
G1 Y15.25 Z-2.0
G1 Y0.0
G3 X0.0 Y-0.4 I0.4 J0.0
G0 Z3.0
M5
M30
